X: 27058
T: Miss Isabella Robertson's
R: jig
M: 6/8
K: Dminor
|:A|D/E/FD d^cd|AGF EFD|C2C c=Bc|GFE DEC|
D/E/FD fed|ed^c d=cB|AGF GFE|FDD D2:|
|:g|fad fad|bag afd|egc egc|agf ge|
[1c|fad fad|bag afd|^cde Aae|fdd d2:|
[2^c|def efg|fga gab|agf gfe|d3 d2||

